X:29
T:Egypt   6 & 8
S:John Moore's Book 3
Z:Transcribed by John Adams 05/2021  
%%VWML:Moore1-4495-p47-0
F:https://www.vwml.org/record/Moore3/4495/p47
M:2/4
L:1/8
K:Bb
V:1 dyn=up
B|(d/c/d/e/)d A|(B/A/B/c/)d c|(Bcd) c|d3B|!p!BA (Ad)|(dc)c2|B2B2|(Ac2)c|c c/B/ A d|c2B2|!fermata! c3||z|zB B 😎
V:2
z|z2zf|f f f g|f3f|f3f|z4|z4|z4|z2zg|a g f f | |f2=e2|!fermata!f3||f|f2f2|
V:3
"Air"F|(B/A/B/c/B) c|(d/c/d/e/f) e|dcB A|B3d|(dc) (cB)|(BA)A2|B2G2|A3c|f =e/d/ c 😎 A2G2|!fermata!F3||d|d2d2|
V:4 clef=bass
z|z2zF,|B, B, B, E,|(C,E,F,) F,,|B,,3 B,,|F,2F,2|F,2F,2|B,,2C,2|F,3=E,|F, G, A, B,|C2C,2|!fermata!F,3||z|zB, B, B,|

